images/logo_footer.svg

<?xml version="1.0" encoding="UTF-8" standalone="no"?>
<svg width="81" height="60" viewBox="0 0 81 60" fill="none" xmlns="http://www.w3.org/2000/svg">
<path d="M35.6058 29.2295L22.5186 19.676L34.8582 40.2759L80.9997 2.21027L35.6058 29.2295ZM29.9915 54.4923C16.4012 54.4923 5.38429 43.4968 5.38429 29.9331C5.38429 16.3696 16.4012 5.37379 29.9915 5.37379C36.0092 5.37379 41.5198 7.53284 45.7954 11.1129L49.2448 7.00516C44.0311 2.63716 37.3154 0 29.9915 0C13.4539 0 0 13.428 0 29.9331C0 46.4384 13.4539 59.8664 29.9915 59.8664C38.5677 59.8664 46.3089 56.2494 51.7802 50.4701L47.8767 46.7908C43.3907 51.5302 37.0395 54.4923 29.9915 54.4923ZM29.9915 47.3736C20.3405 47.3736 12.517 39.5654 12.517 29.9332C12.517 20.301 20.3405 12.4925 29.9915 12.4925C34.2649 12.4925 38.176 14.0285 41.2122 16.5709L43.8017 13.4869C40.0621 10.3536 35.2448 8.46205 29.9915 8.46205C18.1291 8.46205 8.47842 18.0939 8.47842 29.9332C8.47842 41.7722 18.1291 51.404 29.9915 51.404C36.1431 51.404 41.696 48.8095 45.6204 44.6642L42.6838 41.8966C39.4983 45.2619 34.9967 47.3736 29.9915 47.3736Z" fill="white"/>
</svg>

<svg width="81" height="60" viewBox="0 0 81 60" fill="none" xmlns="http://www.w3.org/2000/svg"><path d="M35.606 29.23l-13.087-9.554 12.34 20.6L80.998 2.21 35.607 29.23zM29.99 54.492c-13.59 0-24.607-10.995-24.607-24.559 0-13.563 11.017-24.56 24.607-24.56 6.018 0 11.529 2.16 15.804 5.74l3.45-4.108A29.888 29.888 0 0029.992 0C13.453 0 0 13.428 0 29.933s13.454 29.933 29.991 29.933c8.577 0 16.318-3.617 21.79-9.396l-3.904-3.68c-4.486 4.74-10.838 7.702-17.886 7.702zm0-7.118c-9.65 0-17.474-7.809-17.474-17.44 0-9.633 7.823-17.442 17.474-17.442 4.274 0 8.185 1.536 11.221 4.079l2.59-3.084a21.437 21.437 0 00-13.81-5.025c-11.863 0-21.514 9.632-21.514 21.471 0 11.84 9.651 21.471 21.514 21.471 6.151 0 11.704-2.595 15.628-6.74l-2.936-2.767c-3.186 3.365-7.687 5.477-12.692 5.477z" fill="#fff"/></svg>
